!!!COA:	Josquin des Prez
!!!CDT:	~1450-1521/08/27
!!!OTL@@LAT:Pange, lingua, gloriosi
!!!OTL@ENG:	Sing, my tongue, the Savior's glory
!!!AGN:	Motet
!!!SCT:	NJE 22.2
!!!SCA:	New Josquin Edition 22.2
!!!voices:	4
**kern	**kern	**kern	**kern
*staff4	*staff3	*staff2	*staff1
*Ivox	*Ivox	*Ivox	*Ivox
*I"Bassus	*I"Tenor	*I"Altus	*I"Superius
*I'B	*I'T	*I'A	*I'S
*clefF4	*clefGv2	*clefGv2	*clefG2
*k[]	*k[]	*k[]	*k[]
*M2/1	*M2/1	*M2/1	*M2/1
*met(C|)	*met(C|)	*met(C|)	*met(C|)
=1-	=1-	=1-	=1-
0r	0r	0B	0r
=2	=2	=2	=2
0r	0r	0c	0r
=3	=3	=3	=3
0r	0E	0B	0r
=4	=4	=4	=4
0r	0F	2.A/	0r
.	.	4B\	.
.	.	2c\	.
.	.	[2d\	.
=5	=5	=5	=5
0r	0E	2d\]	0e
.	.	4c\	.
.	.	4B\	.
.	.	1c	.
=6	=6	=6	=6
0r	0D	2.d\	0f
.	.	4c\	.
.	.	2B\	.
.	.	[2A/	.
=7	=7	=7	=7
0AA	1r	2A/]	0e
.	.	4G/	.
.	.	4F/	.
.	[1A	2E/	.
.	.	2A/	.
=8	=8	=8	=8
0BB	2A/]	2.E/	0d
.	4G/	.	.
.	4F/	4E/	.
.	1G	2D/	.
.	.	[2G/	.
=9	=9	=9	=9
0AA	1A	2G/]	0r
.	.	4F/	.
.	.	4E/	.
.	[1c	1F	.
=10	=10	=10	=10
0GG	2c\]	1G	0g
.	4B\	.	.
.	4A/	.	.
.	1B	2r	.
.	.	2d\	.
=11	=11	=11	=11
1.C	0c	1.e	0g
2D\	.	2f\	.
=12	=12	=12	=12
1E	1G	1g	1g
1F	[1c	1f	1a
=13	=13	=13	=13
0C	2c\]	1e	1g
.	2d\	.	.
.	1e	2r	[1cc
.	.	[2g\	.
=14	=14	=14	=14
0G	0d	2g\]	1cc]
.	.	4f\	.
.	.	4e\	.
.	.	1d	1b
=15	=15	=15	=15
1C	0c	0e	0cc
1r	.	.	.
=16	=16	=16	=16
1G	0r	2.d\	0r
.	.	4e\	.
2A\	.	2f\	.
[2c\	.	[2e\	.
=17	=17	=17	=17
2c\]	1r	2e\]	0r
4B\	.	4d\	.
4A\	.	4c\	.
1B	1G	1d	.
=18	=18	=18	=18
1c	1A	0c	0cc
1A	[1c	.	.
=19	=19	=19	=19
0G	2c\]	1r	0dd
.	4B\	.	.
.	4A/	.	.
.	1B	1g	.
=20	=20	=20	=20
1.C	0c	1.e	0cc
2D\	.	2f\	.
=21	=21	=21	=21
1E	1r	1g	0cc
1F	1A	[1a	.
=22	=22	=22	=22
0G	1B	1a]	0b
.	[1d	[1g	.
=23	=23	=23	=23
0A	2d\]	1g]	1a
.	4c\	.	.
.	4B\	.	.
.	1c	1f	1cc
=24	=24	=24	=24
1G	0d	1g	1b
1D	.	1f	[1a
=25	=25	=25	=25
1G	1B	1g	2a/]
.	.	.	2g/
1C	1c	1e	[1g
=26	=26	=26	=26
0D	0A	0d	1g]
.	.	.	1f#i
=27	=27	=27	=27
1r	0G	2.B\	0g
.	.	4c\	.
[1G	.	2d\	.
.	.	2e\	.
=28	=28	=28	=28
1G]	1r	2d\	0r
.	.	2.g\	.
1E	[1c	.	.
.	.	4f\	.
.	.	[2e\	.
=29	=29	=29	=29
0F	1c]	2e\]	0r
.	.	4d\	.
.	.	4c\	.
.	1A	1d	.
=30	=30	=30	=30
0E	0B	2e\	0g
.	.	2.g\	.
.	.	4f\	.
.	.	4e\	.
.	.	4d\	.
=31	=31	=31	=31
1r	0A	2.c\	0a
.	.	4d\	.
[1A	.	2e\	.
.	.	2f\	.
=32	=32	=32	=32
1A]	1r	2e\	0cc
.	.	2.a\	.
1F	1A	.	.
.	.	4g\	.
.	.	[2f\	.
=33	=33	=33	=33
0G	0B	2f\]	0b
.	.	4e\	.
.	.	4d\	.
.	.	1e	.
=34	=34	=34	=34
0F	1.c	1f	0a
.	.	2r	.
.	[2d\	2F/	.
=35	=35	=35	=35
1r	4d\]	4G/	0g
.	4c\	4A/	.
.	4B\	4B\	.
.	4A/	4c\	.
1G	1B	2d\	.
.	.	2e\	.
=36	=36	=36	=36
1F	1c	1f	1a
1G	1B	2d\	1b
.	.	2g\	.
=37	=37	=37	=37
1A	1.e	2e\	1cc
.	.	2.a\	.
1E	.	.	[1b
.	.	4g\	.
.	2d\	2e\	.
=38	=38	=38	=38
1A	1c	2f\	2b\]
.	.	1e	2a/
1F	1A	.	[1a
.	.	2d\	.
=39	=39	=39	=39
0E	0B	1e	1a]
.	.	2r	1g#i
.	.	2e\	.
=40	=40	=40	=40
2.AA/	1A	2.c\	0a
4BB/	.	4d\	.
2C/	2r	2e\	.
2D\	[2A/	2f\	.
=41	=41	=41	=41
2AA/	4A/]	2e\	0r
.	4B\	.	.
1A	1c	2c\	.
.	.	2.e\	.
4G\	4B\	.	.
4F\	4A/	4f\	.
=42	=42	=42	=42
2E\	2G/	2g\	0r
1G	2.B\	1e	.
.	4A/	.	.
4F\	[2A/	4d\	.
4E\	.	4c\	.
=43	=43	=43	=43
1F	2A/]	1d	0r
.	4G/	.	.
.	4F/	.	.
1E	1G	1e	.
=44	=44	=44	=44
1AA	0A	2r	0a
.	.	2.e\	.
2r	.	.	.
.	.	4d\	.
[2A\	.	[2c\	.
=45	=45	=45	=45
4A\]	0r	4c\]	0cc
4G\	.	4B\	.
4F\	.	4A/	.
4E\	.	4G/	.
1F	.	1A	.
=46	=46	=46	=46
2E\	1.e	2B\	0g
2.C/	.	1c	.
4D\	.	.	.
4E\	4d\	4B\	.
4F\	4c\	4A/	.
=47	=47	=47	=47
1G	1B	2G/	0g
.	.	2.g\	.
1C	1c	.	.
.	.	4f\	.
.	.	2e\	.
=48	=48	=48	=48
0D	1A	1d	0f
.	2r	1r	.
.	[2A/	.	.
=49	=49	=49	=49
1C	4A/]	1e	0g
.	4G/	.	.
.	4F/	.	.
.	4E/	.	.
1BB	2D/	1d	.
.	[2G/	.	.
=50	=50	=50	=50
0AA	2G/]	0c	0a
.	4F#i/	.	.
.	4E/	.	.
.	1F#i	.	.
=51	=51	=51	=51
1GG	1G	1B	1d
1C	1r	1c	1e
=52	=52	=52	=52
1D	0A	2A/	1f
.	.	1d	.
1AA	.	.	[1e
.	.	2c\	.
=53	=53	=53	=53
1D	1F	1d	2e/]
.	.	.	2d/
1GG	1G	1B	[1d
=54	=54	=54	=54
0AA	0E	0A	1d]
.	.	.	1c#i
=55	=55	=55	=55
2.A\	1D	2.D/	0d
4G\	.	4E/	.
4F\	2r	4F/	.
4E\	.	4G/	.
[2F\	[2d\	[2A/	.
=56	=56	=56	=56
2F\]	2d\]	2A/]	0r
4E\	4c\	1G	.
4D\	4B\	.	.
1E	1c	.	.
.	.	4F/	.
.	.	4E/	.
=57	=57	=57	=57
1D	1d	1F	0r
1GG	2.B\	1G	.
.	4c\	.	.
=58	=58	=58	=58
1G	2d\	2r	0r
.	2.e\	1g	.
1A	.	.	.
.	4d\	.	.
.	[2c\	2f\	.
=59	=59	=59	=59
0G	2c\]	1g	0g
.	4B\	.	.
.	4A/	.	.
.	1B	2r	.
.	.	2d\	.
=60	=60	=60	=60
4C/	1c	1e	0g
4D\	.	.	.
4E\	.	.	.
4F\	.	.	.
2G\	2B\	2d\	.
2C/	2e\	[2g\	.
=61	=61	=61	=61
2G\	2d\	4g\]	0g
.	.	4f\	.
2C/	1c	2e\	.
1G	.	1d	.
.	2B\	.	.
=62	=62	=62	=62
1C	1c	4c\	0e
.	.	4d\	.
.	.	4e\	.
.	.	4f\	.
2r	2r	2g\	.
[2c\	[2e\	[2a\	.
=63	=63	=63	=63
2c\]	2e\]	4a\]	1r
.	.	4g\	.
4B\	4d\	1f	.
4A\	4c\	.	.
1G	1B	.	1g
.	.	2e\	.
=64	=64	=64	=64
1F	0c	1f	1a
1A	.	2r	1cc
.	.	2f\	.
=65	=65	=65	=65
1G	1.d	1g	1b
1D	.	1f	[1a
.	2c\	.	.
=66	=66	=66	=66
1G	1B	2e\	2a/]
.	.	1d	2g/
1E	1G	.	[1g
.	.	2c\	.
=67	=67	=67	=67
0D	0A	1d	1g]
.	.	2r	1f#i
.	.	2d\	.
=68	=68	=68	=68
2.GG/	1G	2.B\	0g
4AA/	.	4c\	.
2BB/	1r	2d\	.
[2C/	.	[2e\	.
=69	=69	=69	=69
2C/]	2.G/	2e\]	0r
4BB/	.	4d\	.
4AA/	4A/	4c\	.
2GG/	2B\	2B\	.
[2AA/	[2c\	[2e\	.
=70	=70	=70	=70
4AA/]	4c\]	4e\]	0r
4BB/	4B\	4d\	.
4C/	1A	2c\	.
4D\	.	.	.
1E	.	1B	.
.	2G#i/	.	.
=71	=71	=71	=71
1AA	1.A	1A	0a
2r	.	1r	.
[2A\	[2c\	.	.
=72	=72	=72	=72
4A\]	4c\]	0r	0cc
4G\	4B\	.	.
4F\	4A/	.	.
4E\	4G/	.	.
1F	1A	.	.
=73	=73	=73	=73
0E	1B	2.e\	0g
.	.	4d\	.
.	2E/	2c\	.
.	[2e\	[2B\	.
=74	=74	=74	=74
0F	2e\]	2B\]	0a
.	4d\	4A/	.
.	4c\	4G/	.
.	1d	1A	.
=75	=75	=75	=75
1E	1e	2B\	0g
.	.	1G	.
1C	2E/	.	.
.	[2G/	[2c\	.
=76	=76	=76	=76
0D	2G/]	2c\]	0f
.	4F/	4B\	.
.	4E/	4A/	.
.	1F	1B	.
=77	=77	=77	=77
0C	1.G	1c	0e
.	.	2r	.
.	2A/	[2g\	.
=78	=78	=78	=78
0G	0B	2g\]	0d
.	.	4f\	.
.	.	4e\	.
.	.	2d\	.
.	.	[2g\	.
=79	=79	=79	=79
1.C	1c	4g\]	1.e
.	.	4f\	.
.	.	2.e\	.
.	1A	.	.
.	.	4d\	.
2D\	.	[2d\	2f/
=80	=80	=80	=80
1E	1G	2d\]	1g
.	.	2c\	.
1D	1A	1d	[1f
=81	=81	=81	=81
1E	1E	1B	2f/]
.	.	.	2e/
1C	1G	1c	[1e
=82	=82	=82	=82
0D	0F	1A	1e]
.	.	1B	1d
=83	=83	=83	=83
1.C	[0El	2c\	[0el
.	.	1e	.
4BB/	.	4d\	.
4AA/	.	4c\	.
=84	=84	=84	=84
2GG/	0E_	2B\	0e_
2.AA/	.	1c	.
4BB/	.	.	.
4C/	.	4B\	.
4D\	.	4A/	.
=85	=85	=85	=85
2E\	0E_	2G/	0e_
2AA/	.	1A	.
1E	.	.	.
.	.	2G/	.
=86	=86	=86	=86
0AA	0E_	1A	0e_
.	.	1c	.
=87	=87	=87	=87
0El	0E]	0Bl	0e]
==	==	==	==
*-	*-	*-	*-
!!!RDF**kern: l=long note in original notation
!!!RDF**kern: i=editorial accidental
!!!ENC:	Victoria Chang
!!!END:	2011/03/23/
!!!SMS1:	Ed. Rudolf Gerber. Georg Rhau, "Sacrorum hymnorum liber primus, 
!!!SMS2:	i: Proprium de tempore". EDM, 1st series, No. 21. 
!!!EED:	Jesse Rodin
!!!EEV:	2011/04/03/
!!attribution-level@Jos: 4 (questionable)
!!!ONB:	Translated from MusicXML and edited on 2011/04/03/ by Craig Sapp
!!muse2ps: C^@{COA}?\n@{SCT}^I150v90,90,90,150c95Q16
